X:193
T: New Milard Reel
O: No 193 William Clarke of Feltwell
M:4/4
L:1/8
K:D
N:Part A Bar missing at 6. Replaced with bar 2
N:
D>EF>G A>Bc>A| d>fa>f d>cB>A|B>dc>e d>fe>g|f>da>g f2 e2|
D>EF>G A>Bc>A|d>fa>f d>cB>A| B>dc>e d>fe>g| f2!trill!e2d4:||
:a>fa>f g>eg>e|f>da>f d>cB>A| B>dc>e d>fe>a|f>da>f f2 e2|
a>fa>f g>eg>e| f>da>f d>cB>A| B>dc>e d>fe>g| f2 !trill!e2 d4:||

